X: 25981
T: Maybelle's Compliments To Cameron
R: strathspey
M: 4/4
K: Edorian
d|"Em"B>e e/e/f {ef}e>d B2|"D"(3ABc d>A F>AF<D|"Em"B>e e/e/f {ef}e>dB>d|1 "G"B<G"D"A>F "Em"E/E/E E:|2 "G"B<G"D"A>F "Em"E/E/E||
e<f|"Em"{f}g>fe>g B/B/B e<g|"D"{fg}f>ed>f A/A/A e<f|"Em"{f}g>fe>g "D"{fg}f>ed>A|"G"B<G"D"A>F "Em"E/E/E e<f|
"Em"{f}g>fe>g B/B/B e<g|"D"{fg}f>ed>f A/A/A e<f|"G"{gf}g>b"D"{ab}a>f "Em"{f}g>e"D"f>d|"G"B<G"D"A>F "Em"E/E/E E||

